storage/app/icons/phosphoricons/fill/tree-structure-fill.svg

<svg xmlns="http://www.w3.org/2000/svg" fill="currentColor" viewBox="0 0 256 256"><path d="M144 96V80h-16a8 8 0 0 0-8 8v80a8 8 0 0 0 8 8h16v-16a16 16 0 0 1 16-16h48a16 16 0 0 1 16 16v48a16 16 0 0 1-16 16h-48a16 16 0 0 1-16-16v-16h-16a24 24 0 0 1-24-24v-32H72v8a16 16 0 0 1-16 16H24a16 16 0 0 1-16-16v-32a16 16 0 0 1 16-16h32a16 16 0 0 1 16 16v8h32V88a24 24 0 0 1 24-24h16V48a16 16 0 0 1 16-16h48a16 16 0 0 1 16 16v48a16 16 0 0 1-16 16h-48a16 16 0 0 1-16-16"/></svg>

<svg xmlns="http://www.w3.org/2000/svg" viewBox="0 0 256 256" fill="currentColor"><path d="M144,96V80H128a8,8,0,0,0-8,8v80a8,8,0,0,0,8,8h16V160a16,16,0,0,1,16-16h48a16,16,0,0,1,16,16v48a16,16,0,0,1-16,16H160a16,16,0,0,1-16-16V192H128a24,24,0,0,1-24-24V136H72v8a16,16,0,0,1-16,16H24A16,16,0,0,1,8,144V112A16,16,0,0,1,24,96H56a16,16,0,0,1,16,16v8h32V88a24,24,0,0,1,24-24h16V48a16,16,0,0,1,16-16h48a16,16,0,0,1,16,16V96a16,16,0,0,1-16,16H160A16,16,0,0,1,144,96Z"/></svg>
